X: 16196
T: Green Shades Of Gask, The
R: jig
M: 6/8
K: Gmajor
GDG BGB|gag f2 e|dgd BGB|aAA A2 B/A/|
GDG BG/A/B|gag f2 e|dcB Adc|BGF G2:|
gag gdg|aba afd|gfg a^ga|bge e2 e/f/|
[1 gag gfe|aba agf|gfe d[^cg]d|BGG G2:|
[2 gbg ege|dB/c/d gfe|dcB Adc|BGF G2||

